X: 626
T: Grub Springs
C:traditional, John Hatcher
B: jims roots
M:C
L:1/8
R: Reel
Q: 1/4=100
K:C
V:1 
"A"[A,4E4]|: [A,3E3]B, C2E2 | E^FGE "G"DCB,G, | "A"A,G,A,B, C2ED | EA3 "A"A4 |
|: "A"A2a2 {^g}a4 | e^fef !slide!"G"ged2 | "A"ea3 "G"{^f}g4 | "A"eged "G"B2G2 |
"A"Aa2b a3a  | e^fef !slide!"G"g2ga | b2a2 {^f}g4 | "A"efed "G"B2G2 :|
V:A,2E2 
A,B, C2E2 | E^FGE "G"DCB,G, | "A"A,G,A,B, C2ED | EA2[BA] A4:|
% abcbook-tune_id 6298c25d614207badc2aadf4


% abcbook-boost 0
% abcbook-tablature 
% abcbook-transpose 
% abcbook-lastupdated 1654178398514
% abcbook-soundfonts 
% abcbook-repeats 1


